!!!COM: Ives, Charles
!!!OTL: String Quartet No. 2
!!!OMV: II: Arguments
!!!example: 255
!!!work: Ive-35
**kern	**kern	**dynam	**kern	**kern
*grp:A	*grp:B	*grp:B	*grp:B	*grp:B
*part4	*part3	*part3	*part2	*part1
*staff4	*staff3	*	*staff2	*staff1
*I"Violoncello	*I"Viola	*	*I"Violin II	*I"Violin I
*I'Vc.	*I'Vla.	*	*I'Vln. II	*I'Vln. I
*clefF4	*clefC3	*	*clefG2	*clefG2
*k[]	*k[]	*	*k[]	*k[]
*C:	*C:	*	*C:	*C:
*M3/8	*M3/8	*	*M3/8	*M3/8
=1	=1	=1	=1	=1
*^	*	*	*	*
!	!	!	!	!	!LO:TX:t=[eighth]=216
!	!	!	!	!	!LO:TX:b:t=[f]
!	!	!LO:TX:b:t=[f]	!	!LO:TX:b:t=[f]	!LO:TX:a:t=e = e
16ryy@	8D^^L	(16B-X^^LL	.	8d^^L	16a^^LL 16ff
16ryy@	.	16A	.	.	16aJ 16ff
!LO:TX:b:t=[ff]	!	!	!	!	!
(16E-XLL	8CC:J 8GG:	16c	.	8e-X	8een
16DJJ)	.	16c#X	.	.	.
*v	*v	*	*	*	*
8r	16e	.	8fJ	8ddJ
.	16dJJ)	.	.	.
=2	=2	=2	=2	=2
*^	*	*	*	*
16ryy@	8D^^L	(16B-X^^LL	.	(16g^^LL	8ee-X^^L
16ryy@	.	16A	.	16f#X	.
(16E-XLL	8CC:J 8GG:	16c	.	16e	8ff
16DJJ)	.	16c#X	.	16e-XJJ)	.
16ryy@	8r	16e	.	(16a-X^^LL	8ggJ
16ryy@	.	16dJJ)	.	16g	.
=3	=3	=3	=3	=3	=3
!	!	!LO:TX:a:i:t="Saying the same thing over & over & louder & louder-ain't arguing, DKE. ["]	!	!LO:TX:b:t=	!LO:TX:b:t=
16ryy@	8DL	(16B-X^^LL	.	16fn	(16cc^^LL
16ryy@	.	16A	.	16enJJ)	16ff#X
!LO:TX:b:i:t=[simile]	!	!	!	!	!
(16E-X^^LL	8CCJ 8GG	16c	.	8gL	16ffn
16DJJ)	.	16c#X	.	.	16bbJJ)
*v	*v	*	*	*	*
8r	16e	.	8f#XJ	(16bb-X^^LL
.	16dJJ)	.	.	16eee
=4	=4	=4	=4	=4
*^	*	*	*	*
16ryy@	8DL	(16B-X^^LL	f <	8ffnL	16eee-X
16ryy@	.	16A	.	.	16aaaJJ)
(16E-X^^LL	8CCJ 8GG	16c	.	8eeJ	(16ggg#X^^LL
16DJJ)	.	16c#X	.	.	16ddd
*v	*v	*	*	*	*
8r	16e	.	8dd#XL	16ccc#X
.	16dJJ)	[	.	16ggnJJ)
=5	=5	=5	=5	=5
*^	*	*	*	*
16ryy@	8DL	(16B-X^^LL	ff <	8a#XJ	(16cccn^^LL
16ryy@	.	16A	.	.	16gg-X
(16E-X^^LL	8CCJ 8GG	16c	.	8gnL	16ffn
16DJJ)	.	16c#X	.	.	16bnJJ)
*v	*v	*	*	*	*
!	!	!	!LO:TX:b:t=	!LO:TX:b:t=
8r	16e	.	8g-X	(16bb-X^^LL
.	16dJJ)	[	.	16ee
=6	=6	=6	=6	=6
*^	*	*	*	*
16ryy@	8DL	(16B-X^^LL	fff <	([8fJ	16ee-X
16ryy@	.	16A	.	.	16aJJ)
(16E-X^^LL	8CCJ 8GG	16c	.	4f]	(16g#X^^LL
16DJJ)	.	16c#X	.	.	16dd
*v	*v	*	*	*	*
8r	16e	.	.	16dd-X
!	!LO:TX:b:t=	!	!	!
.	16dJJ)	[	.	16ggnJJ)
=7	=7	=7	=7	=7
*^	*	*	*	*
16ryy@	8DL	(16d-X^^LL	.	4e)	(16cc^^LL
16ryy@	.	16A-X	.	.	16f#X
!LO:TX:b:t=	!	!	!	!	!
(16E-X^^LL	8CCJ 8GG	16G	.	.	16ffn
16DJJ)	.	16cJJ)	.	.	16bbnJJ)
!	!	!	!	!	!LO:TX:a:t=e = e
!	!	!	!	!LO:TX:b:t=	!LO:TX:b:t=
16ryy@	8DL	(16B^^LL	.	8G#X^^ 8d	16a^^LL 16ee
16ryy@	.	16F#X	.	.	16aJ 16ee
(16E-^^LL	8CCJ 8GG	16Fn	.	8r	8an 8aa-X
16DJJ)	.	16B-XJJ)	.	.	.
16ryy@	8DL	(16An^^LL	.	8B-X 8d	8aJ 8gg
16ryy@	.	16E	.	.	.
(16E-^^LL	8CCJ 8GG	16E-X	.	8G#X^^ 8d	16a^^LL 16ee
16DJJ)	.	16A-XJJ)	.	.	16aJ 16ee
16ryy@	8DL	(16G^^LL	.	8r	8a 8bb-X
16ryy@	.	16Dn	.	.	.
(16E-^^LL	8CCJ 8GG	16C#X	.	8B-X 8d	8aJ 8aa
16DJJ)	.	16F#XJJ)	.	.	.
=8	=8	=8	=8	=8	=8
*	*	*	*	*	*^
16ryy@	8DL	16FnLL	.	8G#X^^ 8d	(16bb-X^^LL	4.a
16ryy@	.	16C	.	.	16aa	.
(16E-X^^LL	8CCJ 8GG	16B	.	8r	16ccc	.
16DJJ)	.	16F#XJJ	.	.	16ccc#X	.
16ryy@	8DL	16GLL	.	8B-X 8d	16eee	.
16ryy@	.	16c	.	.	16dddJJ)	.
*	*	*	*	*	*v	*v
(16E-^^LL	8CCJ 8GG	16c#X	.	8G#X^^ 8d	8a^L 8ggg#X
16DJJ)	.	16DJJ	.	.	.
16ryy@	8DL	16e-XLL	.	8r	8a^ 8ggg#
16ryy@	.	16B-X	.	.	.
(16E-^^LL	8CCJ 8GG	16A	.	8B-X 8d	8a^J 8ggg#
16DJJ)	.	16g#XJJ	.	.	.
16ryy@	8DL	16d#XLL	.	8G#X^^ 8d	8r
16ryy@	.	16en	.	.	.
(16E-^^LL	8CCJ 8GG	16Bn	.	8r	16ggnLL
16DJJ)	.	16cnJJ	.	.	16ccc#XJ
=9	=9	=9	=9	=9	=9
*	*	*^	*	*	*
16ryy@	8DL	16ryy@	16fLL	.	8B-X 8d	8ggg#XJ
16ryy@	.	16ryy@	16F#X	.	.	.
(16E-X^^LL	8CCJ 8GG	16ryy@	16B	.	8G#X^^ 8d	8a^^ 8bbb-X
16DJJ)	.	16ryy@	16B-XJJ	.	.	.
16ryy@	8DL	16ryy@	16FnLL	.	8r	8r
16ryy@	.	16ryy@	16En	.	.	.
(16E-^^LL	8CCJ 8GG	16ryy@	16A	.	8B-X 8d	8ddd
16DJJ)	.	16ryy@	[16CJJ [16A-X	.	.	.
*v	*v	*	*	*	*	*
16CC#XLL	16ryy@	8CL] 8A-]	.	8G#X^^ 8d	8a^^ 8bbb-X
16FF#X	16ryy@	.	.	.	.
16BB	(16e-X^^LL	8CJ 8G	.	8r	16gg-XLL
16CnJJ	16dJJ)	.	.	.	16ff
16GGLL	16ryy@	8CL 8G	.	8B-X 8d	16dd-X
16DD	16ryy@	.	.	.	16ccJJ
16EE-X	(16e-^^LL	8CJ 8G	.	8G#X^^ 8d	8a^L 8ggg#X
16AA-XJJ	16dJJ)	.	.	.	.
=10	=10	=10	=10	=10	=10
16D-XLL	16ryy@	8CL 8G	.	8r	8a^ 8ggg#
16Dn	16ryy@	.	.	.	.
16AA	(16e-X^^LL	8CJ 8G	.	8B-X 8d	8a^J 8ggg#
16EEnJJ	16dJJ)	.	.	.	.
16FFLL	16ryy@	8CL 8G	.	8G#X^^ 8d	8r
16AA#X	16ryy@	.	.	.	.
16D#X	(16e-^^LL	8CJ 8G	.	8r	16ggnLL
16EJJ	16dJJ)	.	.	.	16ccc#XJ
16BBLL	16ryy@	8CL 8G	.	8B-X 8d	8ggg#XJ
16FF#X	16ryy@	.	.	.	.
16GGn	(16e-^^LL	8CJ 8G	.	8G#X^^ 8d	8a^^ 8bbb-X
16CnJJ	16dJJ)	.	.	.	.
16FnLL	16ryy@	8CL 8G	.	8r	8r
16F#X	16ryy@	.	.	.	.
16C#X	(16e-^^LL	8CJ 8G	.	8B-X 8d	8ddd
16GG#XJJ	16dJJ)	.	.	.	.
*	*v	*v	*	*	*
=	=	=	=	=
*-	*-	*-	*-	*-
!!!system-decoration: [(s1,s2,s3,s4)]
!!!CDT: 1874/10/20-1954/05/19
!!!CBL: Danbury, United States
!!!CDL: New York, United States
!!!CNT: American
!!!AGN: Instrumental; Chamber
!!!MCN:
!!!MDT: 1946/05/11
!!!MGN: Juilliard School Student Ensemble
!!!MLC: New York, New York, United States of America
!!!MPD: 1946
!!!MPN: Goldberg, Alla; Koff, Alla; Levin, Walter; Robbins, Rena
!!!ODT: 1915
!!!PDT: 1954
!!!excerpt-start-measure: 19
!!!excerpt-end-measure: 24
!!!excerpt-start-time: 0:19
!!!excerpt-end-time: 0:24
!!!EEV: 2020/09/18
!!!ONB: Converted from MusicXML on 2020/09/04
